X: 33818
T: Real McCoy, The
R: reel
M: 4/4
K: Amajor
|:zB|ceef ecBc|ABcE FGAc|Bffe dBBA|GABc defg|
aeef ecBc|fcec Aaga|fefd eagf|ecdB A2:|
ag|:ac (3ccc ABce|fgae ecAF|EFAB cAfc|ecAc Befg|
ac (3ccc ABce|fgae ecAF|EFAB cefc|ecBc A4:|

